!!!!SEGMENT: pl-wtm--r-2545--003_hertz-michal--firdusi-no-3-spiew-nerydy.krn
!!!cenid: 18xx:3105
!!!COM: Hertz, Michał
!!!COM-rismID: pe41023359
!!!CDT: 1844/09/28-~1918
!!!CNT: Polish
!!!OPR: Firdusi
!!!OTL: No. 3 – Śpiew Nerydy
!!!OMV: 003
!!!PDT:
!!!AGN:
!!!SMS-siglum: PL-Wtm
!!!SMS-shelfmark: R 2545
!!!SMS-shelfwork: 001-003 M
!!!SMS-variant:
!!!SMS-altvar:
!!!NIFC-rismSourceID: 1001081950
!!!NIFC-rismChildID: 1001081950
!!!NIFC-islandoraID:
!!!URL-pdf-islandora:
!!!URL-scan:
!!!IIIF:
!!!ONB-nifc:
!!!OMD: Allegro [quarter] = 80
!!!AIN: 1 alto 1 bass 1 cello 1 clars 1 cor 5 empty 1 fagot 1 oboe 1 vox
!!!key:
**kern	**dynam	**kern	**dynam	**kern	**dynam	**kern	**dynam	**kern	**dynam	**kern	**text	**dynam	**kern	**text	**dynam	**kern	**text	**dynam	**kern	**dynam	**kern	**dynam	**kern	**dynam	**kern	**dynam	**kern	**dynam
*part13	*part13	*part12	*part12	*part11	*part11	*part10	*part10	*part9	*part9	*part8	*part8	*part8	*part7	*part7	*part7	*part6	*part6	*part6	*part5	*part5	*part4	*part4	*part3	*part3	*part2	*part2	*part1	*part1
*staff13	*	*staff12	*	*staff11	*	*staff10	*	*staff9	*	*staff8	*staff8	*	*staff7	*staff7	*	*staff6	*staff6	*	*staff5	*	*staff4	*	*staff3	*	*staff2	*	*staff1	*
*Ibass	*	*Icello	*	*Ialto	*	*Iempty	*	*Iempty	*	*Ivox	*	*	*Iempty	*	*	*Iempty	*	*	*Icor	*	*Ifagot	*	*Iclars	*	*Ioboe	*	*Iempty	*
*I"Basso	*	*I"Cello	*	*I"Alto	*	*I"Viol 2°	*	*I"Viol 1°	*	*I"Voce	*	*	*I"Tenor Bass 1, 2	*	*	*I"Sopr Alt	*	*	*I"Corno in F	*	*I"Fag	*	*I"Clarinetti in B	*	*I"Oboe	*	*I"Fl 1°	*
*I'cb	*	*I'vlc	*	*I'vla	*	*I'vl 2	*	*I'vl 1	*	*I'V.	*	*	*I'T B 1, 2	*	*	*I'S A	*	*	*I'cor in F	*	*I'fag	*	*I'cl in B	*	*I'ob	*	*I'fl 1	*
*clefF4	*	*clefF4	*	*clefC3	*	*clefG2	*	*clefG2	*	*clefG2	*	*	*clefF4	*	*	*clefG2	*	*	*clefG2	*	*clefF4	*	*clefG2	*	*clefG2	*	*clefG2	*
*ITrd0c0	*	*	*	*	*	*	*	*	*	*	*	*	*	*	*	*	*	*	*ITrd4c7	*	*	*	*ITrd1c2	*	*	*	*	*
*k[f#]	*	*k[f#]	*	*k[f#]	*	*k[f#]	*	*k[f#]	*	*k[f#]	*	*	*k[f#]	*	*	*k[f#]	*	*	*k[f#]	*	*k[f#]	*	*k[f#]	*	*k[f#]	*	*k[f#]	*
*e:	*	*e:	*	*e:	*	*e:	*	*e:	*	*e:	*	*	*e:	*	*	*e:	*	*	*e:	*	*e:	*	*e:	*	*e:	*	*e:	*
*M4/4	*	*M4/4	*	*M4/4	*	*M4/4	*	*M4/4	*	*M4/4	*	*	*M4/4	*	*	*M4/4	*	*	*M4/4	*	*M4/4	*	*M4/4	*	*M4/4	*	*M4/4	*
*met(c)	*	*met(c)	*	*met(c)	*	*met(c)	*	*met(c)	*	*met(c)	*	*	*met(c)	*	*	*met(c)	*	*	*met(c)	*	*met(c)	*	*met(c)	*	*met(c)	*	*met(c)	*
*MM80	*	*MM80	*	*MM80	*	*MM80	*	*MM80	*	*MM80	*	*	*MM80	*	*	*MM80	*	*	*MM80	*	*MM80	*	*MM80	*	*MM80	*	*MM80	*
=1	=1	=1	=1	=1	=1	=1	=1	=1	=1	=1	=1	=1	=1	=1	=1	=1	=1	=1	=1	=1	=1	=1	=1	=1	=1	=1	=1	=1
*	*	*	*	*	*	*	*	*	*	*	*	*	*	*	*	*	*	*	*	*	*	*	*^	*	*	*	*	*
*	*	*2\right	*	*2\right	*	*2\right	*	*2\right	*	*	*	*	*	*	*	*	*	*	*	*	*2\right	*	*2\right	*2\left	*	*2\right	*	*	*
.	.	(>8qEE/	.	.	.	.	.	.	.	.	.	.	.	.	.	.	.	.	.	.	.	.	.	.	.	.	.	.	.
!	!	!	!	!	!	!	!LO:DY:b:rj	!	!	!	!	!	!	!	!	!	!	!	!LO:TX:t=P:problem=w źródle brak znaków przykluczowych	!	!	!	!	!	!	!	!	!	!
1r	.	(>4E\)	.	4G'</	.	2B/	p	4e'/	p	1r	.	.	1ryy	.	.	1ryy	.	.	1r	.	(4E\	p	2B/	2G\	p	1e	p	1ryy	.
.	.	&(<16qqD/LL	.	.	.	.	.	.	.	.	.	.	.	.	.	.	.	.	.	.	&(<16qqD/LL	.	.	.	.	.	.	.	.
.	.	16qqE/JJ&)	.	.	.	.	.	.	.	.	.	.	.	.	.	.	.	.	.	.	16qqE/JJ&)	.	.	.	.	.	.	.	.
!	!	!LO:TUP:a:problem=klamra łukowa	!	!	!	!	!	!	!	!	!	!	!	!	!	!	!	!	!	!	!LO:TUP:a:problem=klamra łukowa	!	!	!	!	!	!	!	!
.	.	&(>12D\L	.	4r	.	.	.	4r	.	.	.	.	.	.	.	.	.	.	.	.	&(>12D\L	.	.	.	.	.	.	.	.
.	.	12C\	.	.	.	.	.	.	.	.	.	.	.	.	.	.	.	.	.	.	12C\	.	.	.	.	.	.	.	.
.	.	12BB\J&))	.	.	.	.	.	.	.	.	.	.	.	.	.	.	.	.	.	.	12BB\J&))	.	.	.	.	.	.	.	.
.	.	(>8C\L	.	4.F#/	.	(<8A/L	.	4e'/	.	.	.	.	.	.	.	.	.	.	.	.	(8C\L	.	(<8A/L	4.F#\	.	.	.	.	.
.	.	8AA\J)	.	.	.	8c/J)	.	.	.	.	.	.	.	.	.	.	.	.	.	.	8AA\J)	.	8c/J)	.	.	.	.	.	.
.	.	8r	.	.	.	8r	.	4r	.	.	.	.	.	.	.	.	.	.	.	.	8r	.	8r	.	.	.	.	.	.
.	.	8AA#X/	.	8G/	.	8c#X/	.	.	.	.	.	.	.	.	.	.	.	.	.	.	8AA#X/	.	8c#X/	8G\	.	.	.	.	.
=2	=2	=2	=2	=2	=2	=2	=2	=2	=2	=2	=2	=2	=2	=2	=2	=2	=2	=2	=2	=2	=2	=2	=2	=2	=2	=2	=2	=2	=2
*	*	*	*	*	*	*	*	*	*	*	*	*	*	*	*	*	*	*	*	*	*	*	*	*2\right	*	*	*	*	*
.	.	.	.	8qF#/	.	.	.	(<8qd#X/	.	.	.	.	.	.	.	.	.	.	.	.	.	.	8qF#/	(<8qF#\	sf	(<8qd#X/	sf	.	.
1r	.	(<4.BB/	.	2.G/	.	2.B/	.	2.e/)	.	1r	.	.	1ryy	.	.	1ryy	.	.	1r	.	(>4.BB/	.	2.B/	2.G\)	.	2.e/)	.	1ryy	.
.	.	&(<32qqGG/LLL	.	.	.	.	.	.	.	.	.	.	.	.	.	.	.	.	.	.	&(<16qqGG/LL	.	.	.	.	.	.	.	.
.	.	32qqAA/JJJ	.	.	.	.	.	.	.	.	.	.	.	.	.	.	.	.	.	.	16qqAA/JJ	.	.	.	.	.	.	.	.
.	.	8GG/&)	.	.	.	.	.	.	.	.	.	.	.	.	.	.	.	.	.	.	8GG/&)	.	.	.	.	.	.	.	.
.	.	4EE/)	.	.	.	.	.	.	.	.	.	.	.	.	.	.	.	.	.	.	4EE/)	.	.	.	.	.	.	.	.
.	.	4r	.	4r	.	4r	.	4r	.	.	.	.	.	.	.	.	.	.	.	.	4r	.	4r	4ryy	.	4r	.	.	.
*	*	*	*	*	*	*	*	*	*	*	*	*	*	*	*	*	*	*	*	*	*	*	*v	*v	*	*	*	*	*
=3	=3	=3	=3	=3	=3	=3	=3	=3	=3	=3	=3	=3	=3	=3	=3	=3	=3	=3	=3	=3	=3	=3	=3	=3	=3	=3	=3	=3
*	*	*	*^	*	*	*	*	*	*	*	*	*	*	*	*	*	*	*	*	*	*	*^	*	*^	*	*	*	*
*2\right	*	*	*	*	*	*	*	*	*	*	*2\right	*	*	*	*	*	*	*	*	*	*	*	*	*	*	*	*	*	*	*	*
!LO:TX:b:t=piz	!	!	!	!	!LO:TX:b:i:t=piz	!	!	!	!LO:TX:b:i:t=piz	!	!	!	!	!	!	!	!	!	!	!	!	!	!	!	!	!	!	!	!	!	!
!	!LO:DY:b:rj	!	!	!	!	!	!	!	!	!LO:DY:b:rj	!	!	!LO:DY:b:rj	!	!	!	!	!	!	!	!	!	!	!	!	!	!	!	!	!	!
8E\	p	4r	.	.	8G/	.	2r	.	4e 4B/	p	[>4b\	Błę-	p	1ryy	.	.	1ryy	.	.	1r	.	4r	.	.	1B 1G	sf	p	[>1e	sf p	1ryy	.
8r	.	.	.	.	8r	.	.	.	.	.	.	.	.	.	.	.	.	.	.	.	.	.	.	.	.	.	.	.	.	.	.
!	!	!LO:TX:b:i:t=arco	!	!	!	!	!	!	!	!	!	!	!	!	!	!	!	!	!	!	!	!	!	!	!	!	!	!	!	!	!
!	!	!LO:TX:a:Bi:t=con expres.	!	!	!LO:TX:b:i:t=arco	!	!	!	!	!	!	!	!	!	!	!	!	!	!	!	!	!	!	!	!	!	!	!	!	!	!
!	!	!	!LO:DY:a	!LO:DY:b:rj	!	!LO:DY:b:rj	!	!	!	!	!	!	!	!	!	!	!	!	!	!	!	!	!LO:DY:a	!LO:DY:b	!	!	!	!	!	!	!
!	!	!	!	!	!	!	!	!	!	!	!LO:TUP:a:problem=klamra łukowa	!	!	!	!	!	!	!	!	!	!	!	!	!	!	!	!	!	!	!	!
4r	.	2E\	sf	p	4r	p	.	.	4r	.	12b\]	.	.	.	.	.	.	.	.	.	.	2E\	sf	p	.	.	.	.	.	.	.
.	.	.	.	.	.	.	.	.	.	.	12a#X\	-kit	.	.	.	.	.	.	.	.	.	.	.	.	.	.	.	.	.	.	.
.	.	.	.	.	.	.	.	.	.	.	12b\	się	.	.	.	.	.	.	.	.	.	.	.	.	.	.	.	.	.	.	.
!	!	!	!	!	!	!LO:DY:b:rj	!	!LO:DY:b:rj	!	!	!	!	!	!	!	!	!	!	!	!	!	!	!	!	!	!	!	!	!	!	!
2r	.	.	.	.	(<32B/LLL	sf	(<32B/LLL	p	4r	.	8ee\	nie-	.	.	.	.	.	.	.	.	.	.	.	.	.	.	.	.	.	.	.
!	!	!	!	!	!	!	!	!LO:DY:b:rj	!	!	!	!	!	!	!	!	!	!	!	!	!	!	!	!	!	!	!	!	!	!	!
.	.	.	.	.	32c/JJ	.	32c/JJ	sf	.	.	.	.	.	.	.	.	.	.	.	.	.	.	.	.	.	.	.	.	.	.	.
.	.	.	.	.	8.B/J)	.	8.B/J)	.	.	.	.	.	.	.	.	.	.	.	.	.	.	.	.	.	.	.	.	.	.	.	.
.	.	.	.	.	.	.	.	.	.	.	8b\	-ba	.	.	.	.	.	.	.	.	.	.	.	.	.	.	.	.	.	.	.
.	.	(<16qqD/LL	.	.	.	.	.	.	.	.	.	.	.	.	.	.	.	.	.	.	.	(<16qqD/LL	.	.	.	.	.	.	.	.	.
!	!	!	!	!	!LO:TX:b:i:t=piz	!	!LO:TX:b:i:t=piz	!	!	!	!	!	!	!	!	!	!	!	!	!	!	!	!	!	!	!	!	!	!	!	!
.	.	16qqE/JJ)	.	.	.	.	.	.	.	.	.	.	.	.	.	.	.	.	.	.	.	16qqE/JJ)	.	.	.	.	.	.	.	.	.
!	!	!LO:TUP:a:problem=klamra łukowa	!	!	!	!	!	!	!	!	!	!	!	!	!	!	!	!	!	!	!	!LO:TUP:a:problem=klamra łukowa	!	!	!	!	!	!	!	!	!
.	.	(>12D\L	.	.	4G'/	.	4B'</	.	4e 4B/	.	4r	.	.	.	.	.	.	.	.	.	.	(>12D\L	.	.	.	.	.	.	.	.	.
.	.	12C\	.	.	.	.	.	.	.	.	.	.	.	.	.	.	.	.	.	.	.	12C\	.	.	.	.	.	.	.	.	.
.	.	12BB\J)	.	.	.	.	.	.	.	.	.	.	.	.	.	.	.	.	.	.	.	12BB\J)	.	.	.	.	.	.	.	.	.
*	*	*	*v	*v	*	*	*	*	*	*	*	*	*	*	*	*	*	*	*	*	*	*	*	*	*	*	*	*	*	*	*
*	*	*	*	*	*	*	*	*	*	*	*	*	*	*	*	*	*	*	*	*	*	*v	*v	*	*	*	*	*	*	*
*	*	*	*	*	*	*	*	*	*	*	*	*	*	*	*	*	*	*	*	*	*	*	*	*v	*v	*	*	*	*
=4	=4	=4	=4	=4	=4	=4	=4	=4	=4	=4	=4	=4	=4	=4	=4	=4	=4	=4	=4	=4	=4	=4	=4	=4	=4	=4	=4	=4
*	*	*	*	*	*	*	*	*	*	*	*	*	*	*	*	*	*	*	*2\right	*	*	*	*	*	*	*	*	*
8r	.	4C/	.	4F#'</	.	4A'</	.	4e'</	.	[<4an/	stro-	.	1ryy	.	.	1ryy	.	.	4r	.	4C'</	.	(>2A &(<2F#\	.	4e/]	.	1ryy	.
!	!LO:DY:b:rj	!	!	!	!	!	!	!	!	!	!	!	!	!	!	!	!	!	!	!	!	!	!	!	!	!	!	!
8F#'>\L	pp	.	.	.	.	.	.	.	.	.	.	.	.	.	.	.	.	.	.	.	.	.	.	.	.	.	.	.
!	!	!LO:TX:b:t=piz	!	!	!	!	!	!	!	!	!	!	!	!	!	!	!	!	!	!	!	!	!	!	!	!	!	!
!	!	!	!	!	!	!	!	!	!	!	!	!	!	!	!	!	!	!	!	!LO:DY:b:rj	!	!	!	!	!	!	!	!
!	!	!	!	!	!	!	!	!	!	!	!	!	!	!	!	!	!	!	!LO:N:acc=#	!	!	!	!	!	!	!	!	!
!	!	!	!	!	!	!	!	!	!	!LO:TUP:a:problem=klamra łukowa	!	!	!	!	!	!	!	!	!	!	!	!	!	!	!	!	!	!
8B'>\	.	4BB/	.	4F#'</	.	4A'</	.	4d#X'</	.	12a/]	.	.	.	.	.	.	.	.	(>2B^>/	p	4BB'</	.	.	.	4d#X'</	.	.	.
.	.	.	.	.	.	.	.	.	.	12g/	-i	.	.	.	.	.	.	.	.	.	.	.	.	.	.	.	.	.
8BB\J	.	.	.	.	.	.	.	.	.	.	.	.	.	.	.	.	.	.	.	.	.	.	.	.	.	.	.	.
.	.	.	.	.	.	.	.	.	.	12f#/	ob-	.	.	.	.	.	.	.	.	.	.	.	.	.	.	.	.	.
8E\L	.	4EE/	.	4G'</	.	4B'</	.	4e'</	.	8g/	-fi-	.	.	.	.	.	.	.	.	.	4E\	.	4B) 4G\&)	.	4e'</	.	.	.
8EE\J	.	.	.	.	.	.	.	.	.	8e/	-cie,	.	.	.	.	.	.	.	.	.	.	.	.	.	.	.	.	.
!	!	!	!LO:DY:a	!	!	!	!	!	!	!	!	!	!	!	!	!	!	!	!	!	!	!	!	!	!	!	!	!
4r	.	4E\	sf	4r	.	4r	.	4r	.	8r	.	.	.	.	.	.	.	.	4E/)	.	4r	.	4r	.	4r	.	.	.
.	.	.	.	.	.	.	.	.	.	8e/	o-	.	.	.	.	.	.	.	.	.	.	.	.	.	.	.	.	.
!!LO:PB:g=original
=5	=5	=5	=5	=5	=5	=5	=5	=5	=5	=5	=5	=5	=5	=5	=5	=5	=5	=5	=5	=5	=5	=5	=5	=5	=5	=5	=5	=5
*	*	*	*	*	*	*	*	*	*	*	*	*	*	*	*	*	*	*	*	*	*	*	*^	*	*	*	*	*
!	!	!	!	!	!	!LO:TX:b:i:t=arco	!	!	!	!	!	!	!	!	!	!	!	!	!	!	!	!	!	!	!	!	!	!	!
1r	.	4BB/	.	4F#/	.	4r	.	4d#X 4B/	.	16f#/	-gro-	.	1ryy	.	.	1ryy	.	.	(>2F#X/	.	(>2BB/	.	8B/	1rB	.	(>2d#X/	.	1ryy	.
.	.	.	.	.	.	.	.	.	.	16e#X/	-dy	.	.	.	.	.	.	.	.	.	.	.	.	.	.	.	.	.	.
.	.	.	.	.	.	.	.	.	.	8f#/	zaś,	.	.	.	.	.	.	.	.	.	.	.	8r	.	.	.	.	.	.
!	!	!	!	!	!	!	!LO:DY:b:rj	!	!	!	!	!	!	!	!	!	!	!	!	!	!	!	!	!	!	!	!	!	!
.	.	4r	.	4r	.	(<32B/LLL	sf	4r	.	4r	.	.	.	.	.	.	.	.	.	.	.	.	(<32B/LLL	.	sf	.	.	.	.
.	.	.	.	.	.	32c/JJ	.	.	.	.	.	.	.	.	.	.	.	.	.	.	.	.	32c/JJ	.	.	.	.	.	.
.	.	.	.	.	.	8.B/J)	.	.	.	.	.	.	.	.	.	.	.	.	.	.	.	.	8.B/J)	.	.	.	.	.	.
.	.	4EE/	.	4G/	.	4r	.	4d# 4B/	.	8r	.	.	.	.	.	.	.	.	2G/	.	2E\	.	8B/	.	.	2e/	.	.	.
.	.	.	.	.	.	.	.	.	.	8g/	w ró-	.	.	.	.	.	.	.	.	.	.	.	8r	.	.	.	.	.	.
!	!	!	!	!	!	!	!LO:DY:b:rj	!	!	!	!	!	!	!	!	!	!	!	!	!	!	!	!	!	!	!	!	!	!
.	.	4r	.	4r	.	(<32B/LLL	sf	4r	.	8e#/	-żan-	.	.	.	.	.	.	.	.	.	.	.	(<32B/LLL	.	sf	.	.	.	.
.	.	.	.	.	.	32c/JJ	.	.	.	.	.	.	.	.	.	.	.	.	.	.	.	.	32c/JJ	.	.	.	.	.	.
.	.	.	.	.	.	8.B/J)	.	.	.	.	.	.	.	.	.	.	.	.	.	.	.	.	8.B/J)	.	.	.	.	.	.
.	.	.	.	.	.	.	.	.	.	8g/	-ny	.	.	.	.	.	.	.	.	.	.	.	.	.	.	.	.	.	.
=6	=6	=6	=6	=6	=6	=6	=6	=6	=6	=6	=6	=6	=6	=6	=6	=6	=6	=6	=6	=6	=6	=6	=6	=6	=6	=6	=6	=6	=6
2r	.	4BB/	.	4F#/	.	4r	.	4d#X 4B/	.	2.f#/	krzew	.	1ryy	.	.	1ryy	.	.	[<2F#X/)	.	[<2BB/)	.	8B/	1rB	.	[>2d#X/)	.	1ryy	.
.	.	.	.	.	.	.	.	.	.	.	.	.	.	.	.	.	.	.	.	.	.	.	8r	.	.	.	.	.	.
!	!	!	!	!	!	!	!LO:DY:b:rj	!	!	!	!	!	!	!	!	!	!	!	!	!	!	!	!	!	!	!	!	!	!
.	.	4r	.	4r	.	(<32B/LLL	sf	4r	.	.	.	.	.	.	.	.	.	.	.	.	.	.	(<32B/LLL	.	sf	.	.	.	.
.	.	.	.	.	.	32c/JJ	.	.	.	.	.	.	.	.	.	.	.	.	.	.	.	.	32c/JJ	.	.	.	.	.	.
.	.	.	.	.	.	8.B/J)	.	.	.	.	.	.	.	.	.	.	.	.	.	.	.	.	8.B/J)	.	.	.	.	.	.
!LO:TX:b:i:t=piz	!LO:DY:a	!	!	!	!	!	!	!	!	!	!	!	!	!	!	!	!	!	!	!	!	!	!	!	!	!	!	!	!
4BB/	p	4r	.	2r	.	2r	.	2r	.	.	.	.	.	.	.	.	.	.	8F#/]	.	8BB/]	.	2r	.	.	8d#/]	.	.	.
.	.	.	.	.	.	.	.	.	.	.	.	.	.	.	.	.	.	.	8r	.	8r	.	.	.	.	8r	.	.	.
.	.	(<&(32qqAA/LLL	.	.	.	.	.	.	.	.	.	.	.	.	.	.	.	.	.	.	.	.	.	.	.	.	.	.	.
.	.	32qqBB/JJJ	.	.	.	.	.	.	.	.	.	.	.	.	.	.	.	.	.	.	.	.	.	.	.	.	.	.	.
!	!	!LO:TUP:b:problem=klamra łukowa	!	!	!	!	!	!	!	!	!	!	!	!	!	!	!	!	!	!	!	!	!	!	!	!	!	!	!
4r	.	&&(<12AA/L&)	.	.	.	.	.	.	.	4r	.	.	.	.	.	.	.	.	4r	.	4r	.	.	.	.	4r	.	.	.
.	.	12GG/	.	.	.	.	.	.	.	.	.	.	.	.	.	.	.	.	.	.	.	.	.	.	.	.	.	.	.
.	.	12FF#/J&&)	.	.	.	.	.	.	.	.	.	.	.	.	.	.	.	.	.	.	.	.	.	.	.	.	.	.	.
*	*	*	*	*	*	*	*	*	*	*	*	*	*	*	*	*	*	*	*	*	*	*	*v	*v	*	*	*	*	*
=7	=7	=7	=7	=7	=7	=7	=7	=7	=7	=7	=7	=7	=7	=7	=7	=7	=7	=7	=7	=7	=7	=7	=7	=7	=7	=7	=7	=7
*	*	*	*	*	*	*	*	*	*	*	*	*	*	*	*	*	*	*	*	*	*	*^	*	*	*	*^	*	*
!	!	!	!	!	!	!	!	!	!	!	!	!	!	!	!	!	!	!	!	!	!	!	!	!	!	!	!LO:DY:b:rj	!	!	!
1r	.	8EE/)	.	8G/	.	2r	.	4e 4B/	.	[>4b\	Wszy-	.	1ryy	.	.	1ryy	.	.	1ryy	.	4r	.	.	1B 1G	sf p	[>1e	sf	p	1ryy	.
.	.	8r	.	8r	.	.	.	.	.	.	.	.	.	.	.	.	.	.	.	.	.	.	.	.	.	.	.	.	.	.
!	!	!	!LO:DY:a	!	!	!	!	!	!	!	!	!	!	!	!	!	!	!	!	!	!	!LO:DY:a	!LO:DY:b	!	!	!	!	!	!	!
!	!	!	!	!	!	!	!	!	!	!LO:TUP:a:problem=klamra łukowa	!	!	!	!	!	!	!	!	!	!	!	!	!	!	!	!	!	!	!	!
.	.	2E\	sf	4r	.	.	.	4r	.	12b\]	.	.	.	.	.	.	.	.	.	.	2E\	sf	p	.	.	.	.	.	.	.
.	.	.	.	.	.	.	.	.	.	12a#X\	-stko	.	.	.	.	.	.	.	.	.	.	.	.	.	.	.	.	.	.	.
.	.	.	.	.	.	.	.	.	.	12b\	co	.	.	.	.	.	.	.	.	.	.	.	.	.	.	.	.	.	.	.
!	!	!	!	!	!LO:DY:b:rj	!	!LO:DY:b:rj	!	!	!	!	!	!	!	!	!	!	!	!	!	!	!	!	!	!	!	!	!	!	!
.	.	.	.	(>32B\LLL	sf	(<32B/LLL	sf	4r	.	8ee\	lu-	.	.	.	.	.	.	.	.	.	.	.	.	.	.	.	.	.	.	.
.	.	.	.	32c\JJ	.	32c/JJ	.	.	.	.	.	.	.	.	.	.	.	.	.	.	.	.	.	.	.	.	.	.	.	.
.	.	.	.	8.B\J)	.	8.B/J)	.	.	.	.	.	.	.	.	.	.	.	.	.	.	.	.	.	.	.	.	.	.	.	.
.	.	.	.	.	.	.	.	.	.	8b\	-dzkie	.	.	.	.	.	.	.	.	.	.	.	.	.	.	.	.	.	.	.
.	.	(<16qqD/LL	.	.	.	.	.	.	.	.	.	.	.	.	.	.	.	.	.	.	16qqD/LL	.	.	.	.	.	.	.	.	.
!	!	!	!	!LO:TX:b:i:t=piz	!	!LO:TX:b:i:t=piz	!	!	!	!	!	!	!	!	!	!	!	!	!	!	!	!	!	!	!	!	!	!	!	!
.	.	16qqE/JJ)	.	.	.	.	.	.	.	.	.	.	.	.	.	.	.	.	.	.	16qqE/JJ	.	.	.	.	.	.	.	.	.
!	!	!LO:TUP:a:problem=klamra łukowa	!	!	!	!	!	!	!	!	!	!	!	!	!	!	!	!	!	!	!	!	!	!	!	!	!	!	!	!
!	!	!	!	!	!	!	!	!	!	!	!	!	!	!	!	!	!	!	!	!	!LO:TUP:a:problem=klamra łukowa	!	!	!	!	!	!	!	!	!
.	.	(>12D\L	.	4G/	.	4B/	.	4e 4B/	.	4r	.	.	.	.	.	.	.	.	.	.	(>12D\L	.	.	.	.	.	.	.	.	.
.	.	12C\	.	.	.	.	.	.	.	.	.	.	.	.	.	.	.	.	.	.	12C\	.	.	.	.	.	.	.	.	.
.	.	12BB\J)	.	.	.	.	.	.	.	.	.	.	.	.	.	.	.	.	.	.	12BB\J)	.	.	.	.	.	.	.	.	.
*	*	*	*	*	*	*	*	*	*	*	*	*	*	*	*	*	*	*	*	*	*	*v	*v	*	*	*	*	*	*	*
*	*	*	*	*	*	*	*	*	*	*	*	*	*	*	*	*	*	*	*	*	*	*	*	*	*	*v	*v	*	*
=8	=8	=8	=8	=8	=8	=8	=8	=8	=8	=8	=8	=8	=8	=8	=8	=8	=8	=8	=8	=8	=8	=8	=8	=8	=8	=8	=8	=8
*	*	*	*	*	*	*	*	*	*	*	*	*	*	*	*	*	*	*	*	*^	*	*	*	*	*	*	*	*
8r	.	8C/	.	4F#/	.	4A/	.	4e'</	.	[>4an/	zdo-	.	1ryy	.	.	1ryy	.	.	4r	.	.	(<4C/	.	(>2A &(<2F#/	.	4e/]	.	1ryy	.
!LO:TX:b:i:t=piz	!	!	!	!	!	!	!	!	!	!	!	!	!	!	!	!	!	!	!	!	!	!	!	!	!	!	!	!	!
8F#\L	.	8r	.	.	.	.	.	.	.	.	.	.	.	.	.	.	.	.	.	.	.	.	.	.	.	.	.	.	.
!	!	!LO:TX:b:t=piz	!	!	!	!	!	!	!	!	!	!	!	!	!	!	!	!	!	!	!	!	!	!	!	!	!	!	!
!	!	!	!	!	!	!	!	!	!	!	!	!	!	!	!	!	!	!	!	!LO:DY:a	!LO:DY:b	!	!	!	!	!	!	!	!
!	!	!	!	!	!	!	!	!	!	!	!	!	!	!	!	!	!	!	!LO:N:acc=#	!	!	!	!	!	!	!	!	!	!
!	!	!	!	!	!	!	!	!	!	!LO:TUP:b:problem=klamra łukowa	!	!	!	!	!	!	!	!	!	!	!	!	!	!	!	!	!	!	!
8B\	.	8BB/L	.	4F#/	.	4B/	.	4d#X'</	.	12a/L]	.	.	.	.	.	.	.	.	2B/	sf	p	8BB/L	.	.	.	4d#X'</	.	.	.
.	.	.	.	.	.	.	.	.	.	12g/J	.	.	.	.	.	.	.	.	.	.	.	.	.	.	.	.	.	.	.
8A\J	.	8AA/J	.	.	.	.	.	.	.	.	.	.	.	.	.	.	.	.	.	.	.	8AA/J	.	.	.	.	.	.	.
.	.	.	.	.	.	.	.	.	.	12f#/	-bi	.	.	.	.	.	.	.	.	.	.	.	.	.	.	.	.	.	.
8G\L	.	4GG/	.	4E/	.	4B/	.	4e'</	.	8g/	ży-	.	.	.	.	.	.	.	.	.	.	4GG/)	.	4B) 4G/&)	.	4e'</	.	.	.
8GG\J	.	.	.	.	.	.	.	.	.	8e/	-cie,	.	.	.	.	.	.	.	.	.	.	.	.	.	.	.	.	.	.
!	!	!	!LO:DY:a	!	!	!	!	!	!	!	!	!	!	!	!	!	!	!	!	!	!	!	!	!	!	!	!	!	!
4r	.	4G\	sf	4r	.	4r	.	4r	.	8r	.	.	.	.	.	.	.	.	4r	.	.	4r	.	4r	.	4r	.	.	.
.	.	.	.	.	.	.	.	.	.	8e/	to	.	.	.	.	.	.	.	.	.	.	.	.	.	.	.	.	.	.
*	*	*	*	*	*	*	*	*	*	*	*	*	*	*	*	*	*	*	*	*v	*v	*	*	*	*	*	*	*	*
!!LO:PB:g=original
=9	=9	=9	=9	=9	=9	=9	=9	=9	=9	=9	=9	=9	=9	=9	=9	=9	=9	=9	=9	=9	=9	=9	=9	=9	=9	=9	=9	=9
4r	.	4r	.	4r	.	4r	.	4r	.	4.ee\	mi-	.	1ryy	.	.	1ryy	.	.	4r	.	1ryy	.	1ryy	.	1ryy	.	1ryy	.
4A\	.	4AA/	.	4F#/	.	4c/	.	4e/	.	.	.	.	.	.	.	.	.	.	2.A^>/	p	.	.	.	.	.	.	.	.
.	.	.	.	.	.	.	.	.	.	8f#/	-łość,	.	.	.	.	.	.	.	.	.	.	.	.	.	.	.	.	.
4r	.	4r	.	4r	.	4r	.	4r	.	4cc\	ach,	.	.	.	.	.	.	.	.	.	.	.	.	.	.	.	.	.
4F#\	.	4FF#/	.	4A/	.	4c/	.	4e/	.	8r	.	.	.	.	.	.	.	.	.	.	.	.	.	.	.	.	.	.
.	.	.	.	.	.	.	.	.	.	8cc\	i	.	.	.	.	.	.	.	.	.	.	.	.	.	.	.	.	.
=10	=10	=10	=10	=10	=10	=10	=10	=10	=10	=10	=10	=10	=10	=10	=10	=10	=10	=10	=10	=10	=10	=10	=10	=10	=10	=10	=10	=10
!	!	!	!	!	!	!	!	!	!	!	!	!	!	!	!	!	!	!	!LO:N:acc=#	!	!	!	!	!	!	!	!	!
4r	.	4r	.	4r	.	4r	.	4r	.	4b\	tan	.	1ryy	.	.	1ryy	.	.	[<2.B/	.	1ryy	.	1ryy	.	1ryy	.	1ryy	.
4B\	.	4BB/	.	4A/	.	4B/	.	4d#X/	.	8r	.	.	.	.	.	.	.	.	.	.	.	.	.	.	.	.	.	.
.	.	.	.	.	.	.	.	.	.	8g/	i	.	.	.	.	.	.	.	.	.	.	.	.	.	.	.	.	.
4r	.	4r	.	4r	.	4r	.	4r	.	4e/	śpiew!	.	.	.	.	.	.	.	.	.	.	.	.	.	.	.	.	.
8E\	.	8E\	.	8G/	.	8B/	.	8e/	.	8r;>	.	.	.	.	.	.	.	.	8B/]	.	.	.	.	.	.	.	.	.
!	!	!	!	!	!	!	!	!	!	!LO:TX:a:Bi:t=un poco piu mosso	!	!	!	!	!	!	!	!	!	!	!	!	!	!	!	!	!	!
8r;>	.	8r;>	.	8r;>	.	8r;>	.	8r;>	.	8e/	Lecz	.	.	.	.	.	.	.	8r	.	.	.	.	.	.	.	.	.
=11	=11	=11	=11	=11	=11	=11	=11	=11	=11	=11	=11	=11	=11	=11	=11	=11	=11	=11	=11	=11	=11	=11	=11	=11	=11	=11	=11	=11
!LO:TX:b:Bi:t=un poco piu mosso	!	!	!	!	!	!	!	!	!	!	!	!	!	!	!	!	!	!	!LO:TX:b:Bi:t=2°:rj	!	!	!	!	!	!	!	!	!
!	!LO:DY:b:rj	!	!LO:DY:b	!	!LO:DY:b	!	!LO:DY:b:rj	!	!	!	!	!	!	!	!	!	!	!	!	!	!	!	!	!	!	!	!	!
8A#X\	p	8r	p	8r	p	8r	p	1r	.	4.f#/	mi-	.	1ryy	.	.	1ryy	.	.	8r	.	2AA#X'</	p	8r	.	1ryy	.	1ryy	.
8r	.	8F#\	.	(>8e\L	.	8e 8c#X/	.	.	.	.	.	.	.	.	.	.	.	.	[<4.F#X/	p	.	.	4.e 4.c#X^>/	p	.	.	.	.
4r	.	4r	.	8c#X\	.	4r	.	.	.	.	.	.	.	.	.	.	.	.	.	.	.	.	.	.	.	.	.	.
.	.	.	.	8F#\J)	.	.	.	.	.	8f#/	-łość	.	.	.	.	.	.	.	.	.	.	.	.	.	.	.	.	.
8c#X\	.	8r	.	8r	.	8r	.	.	.	8e#X/	wscho-	.	.	.	.	.	.	.	2F#/_<	.	2C'>/	.	8r	.	.	.	.	.
8r	.	8F#\	.	(>8e\L	.	8e 8A#X/	.	.	.	8f#/	-dzi	.	.	.	.	.	.	.	.	.	.	.	4.e 4.A#X^>/	.	.	.	.	.
4r	.	4r	.	8A#X\	.	4r	.	.	.	8g#X/	nie-	.	.	.	.	.	.	.	.	.	.	.	.	.	.	.	.	.
.	.	.	.	8F#\J)	.	.	.	.	.	8a#X/	-po-	.	.	.	.	.	.	.	.	.	.	.	.	.	.	.	.	.
=12	=12	=12	=12	=12	=12	=12	=12	=12	=12	=12	=12	=12	=12	=12	=12	=12	=12	=12	=12	=12	=12	=12	=12	=12	=12	=12	=12	=12
8B\	.	8r	.	8r	.	8r	.	2r	.	4b\	-sia-	.	1ryy	.	.	1ryy	.	.	(<1F#X]	.	2BB'>/	.	8r	.	1ryy	.	2r	.
8r	.	8F#\	.	(>8d\L	.	8d 8B/	.	.	.	.	.	.	.	.	.	.	.	.	.	.	.	.	4.f# 4.B^>/	.	.	.	.	.
4r	.	4r	.	8B\	.	4r	.	.	.	4f#/	-na	.	.	.	.	.	.	.	.	.	.	.	.	.	.	.	.	.
.	.	.	.	8F#\J)	.	.	.	.	.	.	.	.	.	.	.	.	.	.	.	.	.	.	.	.	.	.	.	.
8d\	.	8r	.	8r	.	8r	.	8r	.	2r	.	.	.	.	.	.	.	.	.	.	2D'>\	.	8r	.	.	.	8r	.
!	!	!	!	!	!	!	!	!	!LO:DY:b:rj	!	!	!	!	!	!	!	!	!	!	!	!	!	!	!	!	!	!	!LO:DY:b
8r	.	8F#\	.	(>8f#\L	.	8f# 8B/	.	(>8bb\L	p	.	.	.	.	.	.	.	.	.	.	.	.	.	4.f# 4.B^>/	.	.	.	(>8bb\L	p
4r	.	4r	.	8B\	.	4r	.	8aa#X\	.	.	.	.	.	.	.	.	.	.	.	.	.	.	.	.	.	.	8aa#X\	.
.	.	.	.	8F#\J)	.	.	.	8aan\J)	.	.	.	.	.	.	.	.	.	.	.	.	.	.	.	.	.	.	8aan\J	.
!!LO:PB:g=original
=13	=13	=13	=13	=13	=13	=13	=13	=13	=13	=13	=13	=13	=13	=13	=13	=13	=13	=13	=13	=13	=13	=13	=13	=13	=13	=13	=13	=13
!	!	!	!	!	!	!	!	!	!	!	!	!	!	!	!	!	!	!	!LO:TX:a:t=P:problem=W źródle brak początku łuku	!	!	!	!	!	!	!	!	!
8e\	.	8r	.	8r	.	8r	.	8gg#X\	.	4dd\	Głu-	.	1ryy	.	.	1ryy	.	.	2G'>/)	.	2E'>\	.	8r	.	1ryy	.	8gg#X\)	.
8r	.	8G\	.	(>8e\L	.	8e 8B/	.	8r	.	.	.	.	.	.	.	.	.	.	.	.	.	.	4.d 4.B^>/	.	.	.	8r	.
8E\	.	4r	.	8B\	.	4r	.	(>2ggn\	.	8cc#X\	-pi	.	.	.	.	.	.	.	.	.	.	.	.	.	.	.	(>2ggn\	.
8r	.	.	.	8G\J)	.	.	.	.	.	8b\	kto	.	.	.	.	.	.	.	.	.	.	.	.	.	.	.	.	.
8F#\	.	8r	.	8r	.	8r	.	.	.	4.b\	pró-	.	.	.	.	.	.	.	2r	.	[>2F#'>\	.	8r	.	.	.	.	.
8r	.	8F#\	.	(>8d\L	.	8d 8B/	.	.	.	.	.	.	.	.	.	.	.	.	.	.	.	.	4.d 4.B^>/	.	.	.	.	.
4r	.	4r	.	8B\	.	4r	.	[>4ff#\)	.	.	.	.	.	.	.	.	.	.	.	.	.	.	.	.	.	.	[>4ff#\)	.
.	.	.	.	8F#\J)	.	.	.	.	.	8f#/	-żno	.	.	.	.	.	.	.	.	.	.	.	.	.	.	.	.	.
=14	=14	=14	=14	=14	=14	=14	=14	=14	=14	=14	=14	=14	=14	=14	=14	=14	=14	=14	=14	=14	=14	=14	=14	=14	=14	=14	=14	=14
8F#\	.	8r	.	8r	.	8r	.	4ff#\]	.	(4a#X/	szu-	.	1ryy	.	.	1ryy	.	.	1ryy	.	1F#]	.	8r	.	1ryy	.	4ff#\]	.
8r	.	8c#X 8F#\	.	(>8c#X\L	.	8A#X/	.	.	.	.	.	.	.	.	.	.	.	.	.	.	.	.	4.c#X 4.A#X^>/	.	.	.	.	.
4r	.	4r	.	8A#X\	.	4r	.	(>2cc#X\	.	8g#X/)	.	.	.	.	.	.	.	.	.	.	.	.	.	.	.	.	(>2cc#X\	.
.	.	.	.	8F#\J)	.	.	.	.	.	8f#/	-ka	.	.	.	.	.	.	.	.	.	.	.	.	.	.	.	.	.
8B\	.	8r	.	8r	.	8r	.	.	.	4f#/	jej	.	.	.	.	.	.	.	.	.	.	.	8r	.	.	.	.	.
8r	.	8F#\	.	(>8d\L	.	8d 8B/	.	.	.	.	.	.	.	.	.	.	.	.	.	.	.	.	4.d 4.B^>/	.	.	.	.	.
4r	.	4r	.	8B\	.	4r	.	8dd\)	.	8r	.	.	.	.	.	.	.	.	.	.	.	.	.	.	.	.	8dd\)	.
.	.	.	.	8F#\J)	.	.	.	8r	.	8f#/	do	.	.	.	.	.	.	.	.	.	.	.	.	.	.	.	8r	.
=15	=15	=15	=15	=15	=15	=15	=15	=15	=15	=15	=15	=15	=15	=15	=15	=15	=15	=15	=15	=15	=15	=15	=15	=15	=15	=15	=15	=15
*	*	*	*	*	*	*	*	*	*	*	*	*	*	*	*	*	*	*	*	*	*	*	*^	*	*	*	*	*
8B\	.	8Fn\	.	8r	.	8r	.	8r	.	4.gn/	tań-	.	1ryy	.	.	1ryy	.	.	8r	.	2BB'>/	.	8r	8ryy	.	1ryy	.	1ryy	.
!	!	!	!	!	!	!	!	!LO:TX:b:i:t=piz	!	!	!	!	!	!	!	!	!	!	!	!	!	!	!	!	!	!	!	!	!
8r	.	8r	.	(>8d\L	.	8G/	.	8d/	.	.	.	.	.	.	.	.	.	.	4.d^>/	.	.	.	4.B^>/	4.An\	.	.	.	.	.
4r	.	4r	.	8G\	.	4r	.	4r	.	.	.	.	.	.	.	.	.	.	.	.	.	.	.	.	.	.	.	.	.
.	.	.	.	8F#\J)	.	.	.	.	.	8g/	-ców	.	.	.	.	.	.	.	.	.	.	.	.	.	.	.	.	.	.
8G\	.	8r	.	8r	.	8r	.	8r	.	8f#/	chwi-	.	.	.	.	.	.	.	8r	.	2GG'>/	.	8r	8ryy	.	.	.	.	.
8r	.	8F\	.	(>8d\L	.	8B/	.	8d/	.	8g/	-la	.	.	.	.	.	.	.	4.d^>/	.	.	.	4.B^>/	4.F#\	.	.	.	.	.
4r	.	4r	.	8B\	.	4r	.	4r	.	8an/	dziś	.	.	.	.	.	.	.	.	.	.	.	.	.	.	.	.	.	.
.	.	.	.	8F#\J)	.	.	.	.	.	8b\	wy-	.	.	.	.	.	.	.	.	.	.	.	.	.	.	.	.	.	.
=16	=16	=16	=16	=16	=16	=16	=16	=16	=16	=16	=16	=16	=16	=16	=16	=16	=16	=16	=16	=16	=16	=16	=16	=16	=16	=16	=16	=16	=16
8A\	.	8r	.	8r	.	8r	.	8r	.	4dd\	-bra-	.	1ryy	.	.	1ryy	.	.	8r	.	2AA'>/	.	8r	8ryy	.	1ryy	.	1ryy	.
8r	.	8E\	.	(>8c\L	.	8A/	.	8c/	.	.	.	.	.	.	.	.	.	.	4.c^>/	.	.	.	4.A^>/	4.E\	.	.	.	.	.
4r	.	4r	.	8A\	.	4r	.	4r	.	4cc\	-na	.	.	.	.	.	.	.	.	.	.	.	.	.	.	.	.	.	.
.	.	.	.	8E\J)	.	.	.	.	.	.	.	.	.	.	.	.	.	.	.	.	.	.	.	.	.	.	.	.	.
!	!	!	!	!	!	!	!	!LO:TX:b:i:t=arco	!	!	!	!	!	!	!	!	!	!	!	!	!	!	!	!	!	!	!	!	!
8B\	.	8r	.	8r	.	8r	.	8r	.	4r	.	.	.	.	.	.	.	.	8r	.	2BB'>/	.	8r	8ryy	.	.	.	.	.
!	!	!	!	!LO:TX:b:i:t=piz	!	!	!	!	!	!	!	!	!	!	!	!	!	!	!	!	!	!	!	!	!	!	!	!	!
8r	.	8E\	.	8B/	.	8G/	.	8b'>\L	.	.	.	.	.	.	.	.	.	.	4.BX^>/	.	.	.	4.G^>/	4.E\	.	.	.	.	.
!	!	!	!	!	!	!	!	!	!LO:DY:b	!	!	!	!	!	!	!	!	!	!	!	!	!	!	!	!	!	!	!	!
4r	.	4r	.	4r	.	4r	.	8g'>\	p	8r	.	.	.	.	.	.	.	.	.	.	.	.	.	.	.	.	.	.	.
.	.	.	.	.	.	.	.	8e'>\J	.	8b\	więc	.	.	.	.	.	.	.	.	.	.	.	.	.	.	.	.	.	.
=17	=17	=17	=17	=17	=17	=17	=17	=17	=17	=17	=17	=17	=17	=17	=17	=17	=17	=17	=17	=17	=17	=17	=17	=17	=17	=17	=17	=17	=17
!LO:TX:b:i:t=arco	!	!LO:TX:b:i:t=arco	!	!LO:TX:b:i:t=arco	!	!LO:TX:b:i:t=arco	!	!	!	!	!	!	!	!	!	!	!	!	!	!	!	!	!	!	!	!	!	!	!
!	!	!	!	!	!	!	!LO:DY:b	!	!	!	!	!	!	!	!	!	!	!	!	!	!	!	!	!	!	!	!	!	!
(>2A;>\	.	(<2AA;</	.	2c;>\	.	2e;>/	sf	(<8g/	.	(>8gg\	Gwa-	.	1ryy	.	.	1ryy	.	.	8c'</	sf	8AA/	sf	8e/	8c\	sf	1ryy	.	1ryy	.
.	.	.	.	.	.	.	.	(<4.f#;>/)	.	4ff#;>\)	.	.	.	.	.	.	.	.	8r	.	8r	.	8r	8ryy	.	.	.	.	.
.	.	.	.	.	.	.	.	.	.	.	.	.	.	.	.	.	.	.	4r	.	4r	.	4r	4ryy	.	.	.	.	.
.	.	.	.	.	.	.	.	.	.	8ee\	-rno	.	.	.	.	.	.	.	.	.	.	.	.	.	.	.	.	.	.
4F#\)	.	4FF#/)	.	4c\	.	4e/	.	4a/)	.	8cc\L	tańcz	.	.	.	.	.	.	.	2r	.	2r	.	2r	2ryy	.	.	.	.	.
.	.	.	.	.	.	.	.	.	.	8a\J	.	.	.	.	.	.	.	.	.	.	.	.	.	.	.	.	.	.	.
4r;>	.	4r;>	.	4r;>	.	4r;>	.	4r;>	.	8r;>	.	.	.	.	.	.	.	.	.	.	.	.	.	.	.	.	.	.	.
.	.	.	.	.	.	.	.	.	.	8f#/	i	.	.	.	.	.	.	.	.	.	.	.	.	.	.	.	.	.	.
*	*	*	*	*	*	*	*	*	*	*	*	*	*	*	*	*	*	*	*	*	*	*	*v	*v	*	*	*	*	*
=18	=18	=18	=18	=18	=18	=18	=18	=18	=18	=18	=18	=18	=18	=18	=18	=18	=18	=18	=18	=18	=18	=18	=18	=18	=18	=18	=18	=18
*	*	*	*	*	*	*	*	*	*	*	*	*	*^	*	*	*^	*	*	*	*	*	*	*	*	*	*	*	*
*	*	*	*	*	*	*	*	*	*	*	*	*	*2\right	*2\right	*	*	*2\right	*2\right	*	*	*	*	*	*	*	*	*	*	*	*
!	!	!	!	!	!	!	!	!	!	!	!	!	!LO:TX:b:Bi:t=Bass 1, 2	!	!	!	!	!	!	!	!	!	!	!	!	!	!	!	!	!
!	!	!	!	!	!	!	!	!	!	!	!	!	!LO:TX:a:Bi:t=Tenor	!	!	!	!LO:TX:a:Bi:t=Sopr\nalt	!	!	!	!	!	!	!	!	!	!	!	!	!
(>2B;>\	.	(>2BB;</	.	[<2B;</	.	(<2A;</	.	(>2d#X;>/	.	(>8cc\	pie-	.	2r;<	2ryy	.	.	2r;>	2ryy	.	.	1ryy	.	1ryy	.	1ryy	.	1ryy	.	1ryy	.
.	.	.	.	.	.	.	.	.	.	4b;>\)	.	.	.	.	.	.	.	.	.	.	.	.	.	.	.	.	.	.	.	.
.	.	.	.	.	.	.	.	.	.	8g/	-śni	.	.	.	.	.	.	.	.	.	.	.	.	.	.	.	.	.	.	.
4E\)	.	4E\)	.	4B/]	.	4G/)	.	4e/)	.	4e/	piej!	.	4r	4ryy	.	.	4r	4ryy	.	.	.	.	.	.	.	.	.	.	.	.
4r	.	8r	.	4r	.	4ryy	.	8r	.	4r	.	.	8r	8ryy	.	.	8r	8ryy	.	.	.	.	.	.	.	.	.	.	.	.
!	!	!	!LO:DY:b	!	!	!	!	!	!LO:DY:b	!	!	!	!	!	!	!LO:DY:b	!	!	!	!	!	!	!	!	!	!	!	!	!	!
.	.	8E\	f	.	.	.	.	8e/	f	.	.	.	8E/	8E\	.	f	8e/	8e\	Lecz	.	.	.	.	.	.	.	.	.	.	.
!!LO:PB:g=original
*	*	*	*	*	*	*	*	*	*	*	*	*	*v	*v	*	*	*	*	*	*	*	*	*	*	*	*	*	*	*	*
=19	=19	=19	=19	=19	=19	=19	=19	=19	=19	=19	=19	=19	=19	=19	=19	=19	=19	=19	=19	=19	=19	=19	=19	=19	=19	=19	=19	=19	=19
*	*	*	*	*	*	*	*	*	*	*	*	*	*	*	*	*	*	*	*	*^	*	*	*	*^	*	*	*	*	*
!	!LO:DY:b:rj	!	!	!	!LO:DY:b	!	!	!	!LO:DY:b	!	!	!	!	!	!	!	!	!	!LO:HP:a	!	!	!	!	!	!	!	!	!	!	!	!
8c#X\	p	4.F#\	.	8r	p	8r	.	4.f#/	f	1ryy	.	.	4.A#X\	Mi-	.	4.f#/	4.e\	Mi-	<	8r	8rc	p	2C#X'</	p	1r	8r	.	1ryy	.	1ryy	.
!	!	!	!	!	!	!	!LO:DY:b:rj	!	!	!	!	!	!	!	!	!	!	!	!	!	!	!	!	!	!	!	!	!	!	!	!
8r	.	.	.	(>8F#\L	.	8e 8A#X/	p	.	.	.	.	.	.	.	.	.	.	.	.	4.e^>/	[<4.F#X\	.	.	.	.	4.A#X^<\	.	.	.	.	.
4r	.	.	.	8e\	.	4r	.	.	.	.	.	.	.	.	.	.	.	.	.	.	.	.	.	.	.	.	.	.	.	.	.
.	.	(>8F#\	.	8A#X\J)	.	.	.	(<8f#/	.	.	.	.	8A#\	-łość	.	8f#/	8e\	-łość	.	.	.	.	.	.	.	.	.	.	.	.	.
8A#X\	.	8E#X\L	.	8r	.	8e 8c#X/	.	8e#X/L	.	.	.	.	8c#X\	wscho-	.	8e#X/	8e#\	wscho-	.	8r	2F#\_<	.	4AA#X'</	.	.	4c#X\	.	.	.	.	.
8r	.	8F#\	.	(>8F#\L	.	8r	.	(<8f#/)	.	.	.	.	8c#\	-dzi	.	8f#/	8e#\	-dzi	.	4.e^>/	.	.	.	.	.	.	.	.	.	.	.
8c#\	.	(>8G#X\)	.	8e\	.	8e 8A#/	.	8g#X/	.	.	.	.	8A#\	nie	.	8g#X/	8e#\	nie	.	.	.	.	4C#'</	.	.	4A#\	.	.	.	.	.
8r	.	8A#X\J	.	8A#\J)	.	8r	.	8a#X/J	.	.	.	.	8F#\	po-	.	8a#X/	8e#\	po-	.	.	.	.	.	.	.	.	.	.	.	.	.
=20	=20	=20	=20	=20	=20	=20	=20	=20	=20	=20	=20	=20	=20	=20	=20	=20	=20	=20	=20	=20	=20	=20	=20	=20	=20	=20	=20	=20	=20	=20	=20
*	*	*	*	*	*	*	*	*	*	*	*	*	*	*	*	*	*	*	*	*	*	*	*	*	*	*	*	*	*	*2\right	*
8B\	.	4B\	.	8r	.	8r	.	4b\	.	1ryy	.	.	4F#\	-sia-	.	4b/	4d\	-sia-	.	8r	1F#X]	.	2BB'/<	.	2r	8rc	.	2r	.	2r	.
8r	.	.	.	(>8F#\L	.	8d 8B/	.	.	.	.	.	.	.	.	.	.	.	.	.	4.d^>/	.	.	.	.	.	4.B\	.	.	.	.	.
4r	.	4F#\)	.	8d\	.	4r	.	4f#/)	.	.	.	.	4B\	-na	.	4f#/	4d\	-na,	[	.	.	.	.	.	.	.	.	.	.	.	.
.	.	.	.	8B\J)	.	.	.	.	.	.	.	.	.	.	.	.	.	.	.	.	.	.	.	.	.	.	.	.	.	.	.
!	!	!	!	!	!	!	!	!	!	!	!	!	!	!	!	!	!	!	!	!	!	!	!	!	!	!	!LO:DY:a	!	!	!	!
8d\	.	4r	.	8r	.	8r	.	4r	.	.	.	.	2r	.	.	2r	2ryy	.	.	8r	.	.	2D'<\	.	8r	8r	f	8r	.	8r	.
!	!	!	!	!	!	!	!	!	!	!	!	!	!	!	!	!	!	!	!	!	!	!	!	!	!	!	!	!	!LO:DY:b:rj	!	!LO:DY:b:rj
8r	.	.	.	(>8F#\L	.	8f# 8B/	.	.	.	.	.	.	.	.	.	.	.	.	.	4.f#X^>/	.	.	.	.	(<8b/L	4.B\	.	8b\L	f	(>8bb\L	f
4r	.	8r	.	8f#\	.	4r	.	8r	.	.	.	.	.	.	.	.	.	.	.	.	.	.	.	.	8a#X/	.	.	8a#X\	.	8aa#X\	.
.	.	8F#\	.	8B\J)	.	.	.	8f#/	.	.	.	.	.	.	.	.	.	.	.	.	.	.	.	.	8a/J	.	.	8an\J	.	8aan\J	.
*	*	*	*	*	*	*	*	*	*	*	*	*	*	*	*	*	*	*	*	*v	*v	*	*	*	*	*	*	*	*	*	*
=21	=21	=21	=21	=21	=21	=21	=21	=21	=21	=21	=21	=21	=21	=21	=21	=21	=21	=21	=21	=21	=21	=21	=21	=21	=21	=21	=21	=21	=21	=21
8e\	.	(>4d\	.	8r	.	8r	.	(>4dd\	.	1ryy	.	.	4G\	Głu-	.	4dd/	4d\	Głu-	.	1ryy	.	2E'<\	.	8g#X/)	8r	.	8g#X\	.	8gg#X\)	.
8r	.	.	.	(>8G\L	.	8e 8G/	.	.	.	.	.	.	.	.	.	.	.	.	.	.	.	.	.	8r	4.B\	.	8r	.	8r	.
8E\	.	8c#X\L	.	8e\	.	4r	.	8cc#X\L	.	.	.	.	8G\	-pi	.	8cc#X/	8d\	-pi	.	.	.	.	.	(<2g/	.	.	(<2gn/	.	(>2ggn\	.
8r	.	8B\J	.	8B\J)	.	.	.	8b\J)	.	.	.	.	8G\	kto	.	8b/	8d\	kto	.	.	.	.	.	.	.	.	.	.	.	.
8F#\	.	4.B\)	.	8r	.	8r	.	4.b\	.	.	.	.	4.B\	pró-	.	4.b/	4.d\	pró-	.	.	.	[>2F#\	sf	.	8r	.	.	.	.	.
8r	.	.	.	(>8F#\L	.	8d 8B/	.	.	.	.	.	.	.	.	.	.	.	.	.	.	.	.	.	.	4.B\	.	.	.	.	.
4r	.	.	.	8d\	.	4r	.	.	.	.	.	.	.	.	.	.	.	.	.	.	.	.	.	[<4f#/)	.	.	[<4f#/)	.	[>4ff#\)	.
.	.	8F#\	.	8B\J)	.	.	.	8f#/	.	.	.	.	8B\	-żno	.	8f#/	8d\	-żno	.	.	.	.	.	.	.	.	.	.	.	.
=22	=22	=22	=22	=22	=22	=22	=22	=22	=22	=22	=22	=22	=22	=22	=22	=22	=22	=22	=22	=22	=22	=22	=22	=22	=22	=22	=22	=22	=22	=22
8F#\	.	(>4A#X\	.	8r	.	8r	.	(<4a#X/	.	1ryy	.	.	4.A#X\	szu-	.	(>4a#X/	4.c#X\	szu-	.	1ryy	.	1F#]	.	4f#/]	8r	.	4f#/]	.	4ff#\]	.
8r	.	.	.	(>8F#\L	.	8c#X 8A#X/	.	.	.	.	.	.	.	.	.	.	.	.	.	.	.	.	.	.	4.A#X\	.	.	.	.	.
4r	.	8G#X\L	.	8c#X\	.	4r	.	8g#X/L	.	.	.	.	.	.	.	8g#X/)	.	.	.	.	.	.	.	(<4c#X/	.	.	(<4c#X/	.	(>4cc#X\	.
.	.	8F#\J)	.	8A#X\J)	.	.	.	8f#/J)	.	.	.	.	8A#\	-ka	.	8f#/	8c#\	-ka	.	.	.	.	.	.	.	.	.	.	.	.
8B\	.	4F#\	.	8r	.	8r	.	4f#/	.	.	.	.	4B\	jej	.	4f#/	4d\	jej,	.	.	.	.	.	4d/)	8r	.	4d/)	.	4dd\)	.
8r	.	.	.	(>8F#\L	.	8d 8B/	.	.	.	.	.	.	.	.	.	.	.	.	.	.	.	.	.	.	4.B\	.	.	.	.	.
4r	.	8r	.	8d\	.	4r	.	8r	.	.	.	.	8r	.	.	8r	8ryy	.	.	.	.	.	.	4r	.	.	4r	.	4r	.
.	.	8F#\	.	8B\J)	.	.	.	8f#/	.	.	.	.	8B\	do	.	8f#/	8d\	do	.	.	.	.	.	.	.	.	.	.	.	.
=23	=23	=23	=23	=23	=23	=23	=23	=23	=23	=23	=23	=23	=23	=23	=23	=23	=23	=23	=23	=23	=23	=23	=23	=23	=23	=23	=23	=23	=23	=23
8B\	.	4.Gn\	.	8r	.	8r	.	4.gn/	.	1ryy	.	.	4.F#\	tań-	.	4.gn/	4.d\	tań-	.	8r	.	2BB/	p	8r	8ryy	p	1ryy	.	1ryy	.
!	!	!	!	!	!	!	!	!	!	!	!	!	!	!	!	!	!	!	!	!	!LO:DY:b:rj	!	!	!	!	!	!	!	!	!
8r	.	.	.	(>8Fn\L	.	8d 8G/	.	.	.	.	.	.	.	.	.	.	.	.	.	4.d^>/	p	.	.	4.G^>/	4.F\	.	.	.	.	.
4r	.	.	.	8d\	.	4r	.	.	.	.	.	.	.	.	.	.	.	.	.	.	.	.	.	.	.	.	.	.	.	.
!	!	!	!	!	!	!	!	!	!	!	!	!	!	!	!	!	!	!	!LO:HP:a	!	!	!	!	!	!	!	!	!	!	!
.	.	(>8G\	.	8G\J)	.	.	.	(<8g/	.	.	.	.	8F#\	-ców	.	8g/	8d\	-ców	<	.	.	.	.	.	.	.	.	.	.	.
8G\	.	8F#\L	.	8r	.	8r	.	8f#/L	.	.	.	.	8B\	chwi-	.	8f#/	8d\	chwi-	.	8r	.	2GG/	.	8r	8ryy	.	.	.	.	.
8r	.	8G\	.	(>8F\L	.	8d 8B/	.	&(<8g/	.	.	.	.	8B\	-la	.	8g/	8d\	-la	.	4.d^>/	.	.	.	4.B^>/	4.F\	.	.	.	.	.
4r	.	8An\	.	8d\	.	4r	.	8an/)	.	.	.	.	8F#\	dziś	.	8an/	8d\	dziś	.	.	.	.	.	.	.	.	.	.	.	.
.	.	8B\J	.	8B\J)	.	.	.	8b/J	.	.	.	.	8F#\	wy-	.	8b/	8d\	wy-	.	.	.	.	.	.	.	.	.	.	.	.
=24	=24	=24	=24	=24	=24	=24	=24	=24	=24	=24	=24	=24	=24	=24	=24	=24	=24	=24	=24	=24	=24	=24	=24	=24	=24	=24	=24	=24	=24	=24
8A\	.	4d\	.	8r	.	8r	.	4dd\	.	1ryy	.	.	4E\	-bra-	.	4dd/	4e\	-bra-	.	8r	.	2AA/	.	8r	8ryy	.	2r	.	2r	.
8r	.	.	.	(>8E\L	.	8A/	.	.	.	.	.	.	.	.	.	.	.	.	.	4.c^>/	.	.	.	4.A^>/	4.E\	.	.	.	.	.
4r	.	4c\)	.	8c\	.	4r	.	4cc\&)	.	.	.	.	4E\	-na,	.	4cc/	4e\	-na	[	.	.	.	.	.	.	.	.	.	.	.
.	.	.	.	8A\J)	.	.	.	.	.	.	.	.	.	.	.	.	.	.	.	.	.	.	.	.	.	.	.	.	.	.
8B\	.	8r	.	8r	.	8r	.	8r	.	.	.	.	4r	.	.	4r	4ryy	.	.	8r	.	2BB/	.	8r	8ryy	.	8r	.	8r	.
!	!	!	!	!LO:TX:b:i:t=piz	!	!	!	!	!	!	!	!	!	!	!	!	!	!	!	!	!	!	!	!	!	!	!	!	!	!
!	!	!	!	!	!	!	!	!	!LO:DY:b	!	!	!	!	!	!	!	!	!	!	!	!	!	!	!	!	!	!	!LO:DY:b:rj	!	!LO:DY:b
8r	.	8B'>\L	.	8B 8G/	.	8B/	.	8b'>\L	f	.	.	.	.	.	.	.	.	.	.	4.BX^>/	.	.	.	4.G^>/	4.E\	.	8b'>\L	f	8bb'>\L	f
4r	.	8G'>\	.	4r	.	4r	.	8g'>\	.	.	.	.	8r	.	.	8r	8ryy	.	.	.	.	.	.	.	.	.	8g'>\	.	8gg'>\	.
!	!	!	!	!	!	!	!	!	!	!	!	!	!	!	!	!	!	!	!LO:DY:a	!	!	!	!	!	!	!	!	!	!	!
.	.	8E'>\J	.	.	.	.	.	8e'>\J	.	.	.	.	8e\	więc	.	8b/	8g\	więc	ff	.	.	.	.	.	.	.	8e'>\J	.	8ee'>\J	.
=25	=25	=25	=25	=25	=25	=25	=25	=25	=25	=25	=25	=25	=25	=25	=25	=25	=25	=25	=25	=25	=25	=25	=25	=25	=25	=25	=25	=25	=25	=25
!LO:TX:b:t=arco	!	!	!	!LO:TX:b:i:t=arco	!	!LO:TX:b:i:t=arco	!	!	!	!	!	!	!	!	!	!	!	!	!	!	!	!	!	!	!	!	!	!	!	!
!	!LO:DY:b	!	!LO:DY:b	!	!LO:DY:b	!	!LO:DY:b	!	!	!	!	!	!	!	!	!	!	!	!	!	!	!	!	!	!	!	!	!	!	!
(>2A;>\	f	(>8G\	f	2c;>\	f	2e;>/	f	(<8g/	.	1ryy	.	.	4.e;>\	Gwa-	.	(>8gg/	(<8g\	Gwa-	.	8c/	sf	8AA/	sf	8e/	8c\	sf	8g/	.	8gg'>\	.
.	.	4.F#;>\)	.	.	.	.	.	4.f#;>/)	.	.	.	.	.	.	.	4ff#;>/)	4f#;<\)	.	.	8r	.	8r	.	8r	8ryy	.	4f#;</	.	4ff#;>\	.
.	.	.	.	.	.	.	.	.	.	.	.	.	.	.	.	.	.	.	.	4r	.	4r	.	4r	4ryy	.	.	.	.	.
.	.	.	.	.	.	.	.	.	.	.	.	.	8e\	-rno	.	8ee/	8f#\	-rno	.	.	.	.	.	.	.	.	8e/	.	8ee\	.
4F#\)	.	4A\	.	4c\	.	4e/	.	4a/	.	.	.	.	4e\	tańcz	.	8cc/L	4a\	tańcz	.	2r;>	.	2r;>	.	2r;>	2ryy	.	(>8cc\L	.	(>8ccc\L	.
.	.	.	.	.	.	.	.	.	.	.	.	.	.	.	.	8a/J	.	.	.	.	.	.	.	.	.	.	8a\J)	.	8aa\J)	.
4r;>	.	4r;>	.	4r;>	.	4r;>	.	4r;>	.	.	.	.	8r;>	.	.	8r;>	8ryy	.	.	.	.	.	.	.	.	.	4r;>	.	4r;>	.
.	.	.	.	.	.	.	.	.	.	.	.	.	8c\	i	.	8f#/	8f#\	i	.	.	.	.	.	.	.	.	.	.	.	.
=26	=26	=26	=26	=26	=26	=26	=26	=26	=26	=26	=26	=26	=26	=26	=26	=26	=26	=26	=26	=26	=26	=26	=26	=26	=26	=26	=26	=26	=26	=26
!	!	!	!	!	!	!	!	!	!	!	!	!	!	!	!	!	!	!	!	!	!LO:DY:b:rj	!	!LO:DY:b:rj	!	!	!LO:DY:b:rj	!	!	!	!
(>2B;>\	.	(>2BB;</	.	[<2B;</	.	(<2A;</	.	(<2d#X;>/	.	1ryy	.	.	4.B;>\	pie-	.	(>8cc/	4.d#X\	pie-	.	[>2BX;;/ [<2BBX/	f	(<2BB;>/	f	(>2d#X;>/	(<2A;<\	f	1ryy	.	1r	.
.	.	.	.	.	.	.	.	.	.	.	.	.	.	.	.	4b;>/)	.	.	.	.	.	.	.	.	.	.	.	.	.	.
.	.	.	.	.	.	.	.	.	.	.	.	.	8B\	-śni	.	8g/	8d#\	-śni	.	.	.	.	.	.	.	.	.	.	.	.
4E\)	.	4E\)	.	4B/]	.	4G/)	.	4e/)	.	.	.	.	4B\	piej	.	4e/	4e\	piej	.	4B/] 4BB/]	.	4EE/)	.	4e/)	4G\)	.	.	.	.	.
4r	.	4r	.	4r;>	.	4r	.	4r	.	.	.	.	4r	.	.	4r	4ryy	.	.	4r	.	4r	.	4r	4ryy	.	.	.	.	.
*	*	*	*	*	*	*	*	*	*	*	*	*	*	*	*	*v	*v	*	*	*	*	*	*	*v	*v	*	*	*	*	*
==	==	==	==	==	==	==	==	==	==	==	==	==	==	==	==	==	==	==	==	==	==	==	==	==	==	==	==	==
*-	*-	*-	*-	*-	*-	*-	*-	*-	*-	*-	*-	*-	*-	*-	*-	*-	*-	*-	*-	*-	*-	*-	*-	*-	*-	*-	*-	*-
!!!system-decoration: [(s1,s2,s3,s4)][(s5)]{(s6,s7)}[(s8)]{(s9,s10)}[(s11)]{(s12,s13)}
!!!RDF**kern: > = above
!!!RDF**kern: < = below
!!!RDF**kern: | = vertical stroke
!!!RDF**kern: N = linked
!!!RDF**kern: i = editorial accidental
!!!RDF**kern: l = terminal long
!!!ENC: Anastazja Marusiak
!!!END: 2021-11-01
!!!EED: Wojciech Jakubiak-Danek
!!!EEV: 2021-11-12
!!!YEC: Copyright 2022 Narodowy Instytut Fryderyka Chopina (https://polishscores.org)
!!!YEM: License CC-BY-4.0 (https://creativecommons.org/licenses/by/4.0)
